ui_kit/lib/assets/icons/minimize.svg

<svg width="20" height="20" viewBox="0 0 20 20" fill="none" xmlns="http://www.w3.org/2000/svg">
<g id="Minimize">
<path id="Vector" fill-rule="evenodd" clip-rule="evenodd" d="M16.4715 3.52859C16.7318 3.78894 16.7318 4.21105 16.4715 4.4714L12.9429 8.00002H15.3334C15.7016 8.00002 16.0001 8.2985 16.0001 8.66669C16.0001 9.03488 15.7016 9.33336 15.3334 9.33336H11.3334C11.2315 9.33336 11.1349 9.31048 11.0485 9.26959C10.9965 9.24502 10.947 9.21334 10.9015 9.17456C10.8752 9.1522 10.8507 9.12783 10.8282 9.1017C10.784 9.05053 10.7489 8.99425 10.7229 8.93494C10.6868 8.85286 10.6667 8.76212 10.6667 8.66669V4.66669C10.6667 4.2985 10.9652 4.00002 11.3334 4.00002C11.7016 4.00002 12.0001 4.2985 12.0001 4.66669V7.05719L15.5287 3.52859C15.789 3.26824 16.2111 3.26824 16.4715 3.52859ZM4.66674 10.6667C4.29855 10.6667 4.00007 10.9652 4.00007 11.3334C4.00007 11.7015 4.29855 12 4.66674 12H7.05723L3.52864 15.5286C3.26829 15.789 3.26829 16.2111 3.52864 16.4714C3.78899 16.7318 4.2111 16.7318 4.47145 16.4714L8.00007 12.9428V15.3334C8.00007 15.7015 8.29855 16 8.66674 16C9.03493 16 9.3334 15.7015 9.3334 15.3334V11.3334C9.3334 11.2314 9.31053 11.1349 9.26964 11.0485C9.24506 10.9965 9.21339 10.947 9.1746 10.9015C9.10968 10.8252 9.02789 10.7637 8.93499 10.7229C8.85291 10.6867 8.76216 10.6667 8.66674 10.6667H8.66671H4.66674Z" fill="#F5F9FF" fill-opacity="0.95"/>
</g>
</svg>

<svg xmlns="http://www.w3.org/2000/svg" width="20" height="20" fill="none" viewBox="0 0 20 20"><path fill="#F5F9FF" fill-opacity=".95" fill-rule="evenodd" d="M16.471 3.529c.26.26.26.682 0 .942L12.943 8h2.39a.667.667 0 1 1 0 1.333h-4a.664.664 0 0 1-.666-.666v-4a.667.667 0 0 1 1.333 0v2.39l3.53-3.527c.26-.26.682-.26.942 0ZM4.667 10.667a.667.667 0 0 0 0 1.333h2.39L3.53 15.529a.667.667 0 1 0 .942.942l3.53-3.528v2.39a.667.667 0 0 0 1.332 0v-4a.664.664 0 0 0-.666-.666h-4Z" clip-rule="evenodd"/></svg>
